!!!!SEGMENT: pl-cz--iii-197--008_elsner-jozef--missa-c-op-22-agnus.krn
!!!cenid: 18xx:267
!!!COM: Elsner, Józef
!!!COM-rismid: pe30000957
!!!CDT: 1769/06/01-1854/04/18
!!!CNT: Polish
!!!OPR: Missa C op. 22
!!!OTL: Agnus
!!!OMV: 008
!!!PDT:
!!!AGN: Sacred; Mass
!!!SMS-siglum: PL-CZ
!!!SMS-shelfmark: III-197
!!!SMS-shelfwork: 001-008 M
!!!NIFC-rismid:
!!!URL-scan: http://repozytorium.nifc.pl/skany/pl-cz-nut--iii-197
!!!ONB-nifc: UWAGA: części Mszy: Kyrie, Gloria, Graduale, Credo, Offertorio, Sanctus, Benedictus, Agnus
!!!AIN: 1 bass 4 cor 4 empty 2 tenor 1 timpa
!!!key:
**kern	**dynam	**kern	**text	**dynam	**kern	**text	**dynam	**kern	**text	**dynam	**kern	**text	**dynam	**kern	**kern	**kern	**kern	**kern	**kern	**kern
*part12	*part12	*part11	*part11	*part11	*part10	*part10	*part10	*part9	*part9	*part9	*part8	*part8	*part8	*part7	*part6	*part5	*part4	*part3	*part2	*part1
*staff12	*	*staff11	*staff11	*	*staff10	*staff10	*	*staff9	*staff9	*	*staff8	*staff8	*	*staff7	*staff6	*staff5	*staff4	*staff3	*staff2	*staff1
*group4	*	*group3	*	*	*group3	*	*	*group3	*	*	*group3	*	*	*group2	*group1	*group1	*group1	*group1	*group1	*group1
*Ibass	*	*Iempty	*	*	*Iempty	*	*	*Itenor	*	*	*Itenor	*	*	*Itimpa	*Iempty	*Iempty	*Icor	*Icor	*Icor	*Icor
*I"Basso	*	*I"Baſso 2do	*	*	*I"Baſso 1mo	*	*	*I"Tenore 2do	*	*	*I"Tenore 1mo	*	*	*I"Tympano in C G	*I"Clarino 2do in C	*I"Clarino 1mo in C	*I"Corno 2do in C	*I"Corno 1mo in C	*I"Corno 2do in F	*I"Corno 1mo in F
*I'B	*	*I'B II	*	*	*I'B I	*	*	*I'T II	*	*	*I'T I	*	*	*I'Timp	*I'Clno II in C	*I'Clno I in C	*I'Cor II in C	*I'Cor I in C	*I'Cor II in F	*I'Cor I in F
*clefF4	*	*clefF4	*	*	*clefF4	*	*	*clefC4	*	*	*clefC4	*	*	*clefF4	*clefG2	*clefG2	*clefG2	*clefG2	*clefG2	*clefG2
*	*	*	*	*	*	*	*	*	*	*	*	*	*	*	*	*	*ITrd0c0	*ITrd0c0	*ITrd4c7	*ITrd4c7
*k[b-e-a-]	*	*k[b-e-a-]	*	*	*k[b-e-a-]	*	*	*k[b-e-a-]	*	*	*k[b-e-a-]	*	*	*k[]	*k[]	*k[]	*k[]	*k[]	*k[b-]	*k[b-]
*c:	*	*c:	*	*	*c:	*	*	*c:	*	*	*c:	*	*	*c:	*c:	*c:	*c:	*c:	*c:	*c:
*	*	*	*	*	*	*	*	*	*	*	*	*	*	*	*	*	*	*	*	*
*M3/4	*	*M3/4	*	*	*M3/4	*	*	*M3/4	*	*	*M3/4	*	*	*M3/4	*M3/4	*M3/4	*M3/4	*M3/4	*M3/4	*M3/4
=1	=1	=1	=1	=1	=1	=1	=1	=1	=1	=1	=1	=1	=1	=1	=1	=1	=1	=1	=1	=1
*	*	*	*	*	*2\right	*	*	*2\right	*	*	*2\right	*	*	*	*	*	*2\right	*2\right	*2\right	*2\right
!	!	!	!	!	!	!	!	!	!	!	!	!	!	!	!	!	!	!	!	!LO:TX:a:t=problem:laseczki nut w dół z prawej strony
!	!	!LO:TX:a:t=problem:oznaczenie tempa "Adago"	!	!	!LO:TX:a:t=problem:laseczki nut w dół z prawej strony	!	!	!LO:TX:a:t=problem:laseczki nut w dół z prawej strony	!	!	!LO:TX:a:t=problem:laseczki nut w dół z prawej strony	!	!	!	!	!	!LO:TX:a:t=problem:laseczki nut w dół z prawej strony	!LO:TX:a:t=problem:laseczki nut w dół z prawej strony	!LO:TX:a:t=problem:laseczki nut w dół z prawej strony	!LO:TX:a:t=SIC:s=2.dd
!LO:TX:a:B:t=Adagio	!	!LO:TX:a:B:t=Adago	!	!	!LO:TX:a:B:t=Adagio	!	!	!LO:TX:a:B:t=Adagio	!	!	!LO:TX:a:B:t=Adagio	!	!	!LO:TX:a:t=problem:brak skanu	!LO:TX:a:t=29.	!LO:TX:a:t=29.	!LO:TX:a:B:t=Adagio	!LO:TX:a:B:t=Adagio	!LO:TX:a:B:t=Adagio	!LO:TX:a:B:t=Adagio
[2.C/	.	2C/	A-	.	2G\	A-	.	2c\	A-	.	2e-\	A-	.	2.ryy	2.r	2.r	2cc\	2ee-X\	2e-X\	2.a\
.	.	4C/	-gnus	.	4F\	-gnus	.	4Bn\	-gnus	.	4d\	-gnus	.	.	.	.	4b\	4dd\	4d\	.
=2	=2	=2	=2	=2	=2	=2	=2	=2	=2	=2	=2	=2	=2	=2	=2	=2	=2	=2	=2	=2
2C/]	.	2C/	{A-	.	2E-\	{A-	.	(4c\	{A-	.	2c\	{A-	.	2.ryy	2.r	2.r	2cc\	2cc\	2c/	2g\
.	.	.	.	.	.	.	.	4G\)	.	.	.	.	.	.	.	.	.	.	.	.
4r	.	4GG/	-gnus}	.	4G\	-gnus}	.	4Bn\	-gnus}	.	4d\	-gnus}	.	.	.	.	4r	4r	4r	4r
=3	=3	=3	=3	=3	=3	=3	=3	=3	=3	=3	=3	=3	=3	=3	=3	=3	=3	=3	=3	=3
!LO:TX:a:t=7.	!	!	!	!	!	!	!	!	!	!	!	!	!	!	!	!	!LO:TX:a:t=7.	!LO:TX:a:t=7.	!LO:TX:a:t=7.	!LO:TX:a:t=7.
!LO:N:vis=00	!	!	!	!	!	!	!	!	!	!	!	!	!	!	!	!	!LO:N:vis=00	!LO:N:vis=00	!LO:N:vis=00	!LO:N:vis=00
0.r	.	8.C/L	De-	.	4G\	De-	.	4c\	De-	.	4e-\	De-	.	2.ryy	2.r	2.r	0.r	0.r	0.r	0.r
.	.	16E-/Jk	.	.	.	.	.	.	.	.	.	.	.	.	.	.	.	.	.	.
!	!	!LO:TX:a:t=problem:laseczki nut w dół z prawej strony	!	!	!	!	!	!	!	!	!	!	!	!	!	!	!	!	!	!
.	.	4G\	-i	.	4G\	-i	.	4Bn\	-i	.	4d\	-i	.	.	.	.	.	.	.	.
!	!	!	!	!	!	!	!	!	!	!	!LO:TX:a:t=problem:laseczka z lewej strony	!	!	!	!	!	!	!	!	!
.	.	4BBn\	qui	.	4G\	qui	.	4d\	qui	.	8.g\L	qui	.	.	.	.	.	.	.	.
.	.	.	.	.	.	.	.	.	.	.	16f\Jk	.	.	.	.	.	.	.	.	.
=4	=4	=4	=4	=4	=4	=4	=4	=4	=4	=4	=4	=4	=4	=4	=4	=4	=4	=4	=4	=4
!	!	!LO:TX:a:t=problem:niejednoznaczne podstawienie tekstu słownego w tt. 4-5	!	!	!	!	!	!	!	!	!	!	!	!	!	!	!	!	!	!
!	!	!LO:TX:a:t=problem:niejednoznaczny zapis łuku	!	!	!	!	!	!	!	!	!	!	!	!	!	!	!	!	!	!
.	.	(4.C\	tol-	.	(4.G\	tol-	.	(4.c\	tol-	.	(4.e-\	tol-	.	2.ryy	2.r	2.r	.	.	.	.
.	.	8D\)	-lis	.	8F\)	.	.	8Bn\)	.	.	8d\)	.	.	.	.	.	.	.	.	.
.	.	8.E-\	.	.	8.E-\	-lis	.	8.c\	-lis	.	8.c\	-lis	.	.	.	.	.	.	.	.
.	.	16En\	pec-	.	16En\	pec-	.	16B-X\	pec-	.	16B-\	pec-	.	.	.	.	.	.	.	.
=5	=5	=5	=5	=5	=5	=5	=5	=5	=5	=5	=5	=5	=5	=5	=5	=5	=5	=5	=5	=5
!	!	!	!	!	!LO:LB:g=original	!	!	!LO:LB:g=original	!	!	!LO:LB:g=original	!	!	!	!	!	!	!	!	!
!	!	!LO:TX:a:t=problem:niejednoznaczny zapis łuku	!	!	!	!	!	!	!	!	!LO:TX:a:t=problem:niejednoznaczny zapis łuku	!	!	!	!	!	!	!	!	!
.	.	(4F\	-ca-	.	(4F\	-ca-	.	(4A-\	-ca-	.	(>4A-/	-ca-	.	2.ryy	2.r	2.r	.	.	.	.
.	.	4G\	-ta	.	4G\)	.	.	4G\)	.	.	4G/	.	.	.	.	.	.	.	.	.
.	.	4F#X\)	.	.	4F#X\	-ta	.	4F#X\	-ta	.	4F#X/)	-ta	.	.	.	.	.	.	.	.
=6	=6	=6	=6	=6	=6	=6	=6	=6	=6	=6	=6	=6	=6	=6	=6	=6	=6	=6	=6	=6
.	.	8.G\L	mun-	.	8.G\L	mun-	.	8.G/L	mun-	.	8.G/L	mun-	.	2.ryy	2.r	2.r	.	.	.	.
.	.	16A-\Jk	.	.	16A-\Jk	.	.	16A-/Jk	.	.	16A-/Jk	.	.	.	.	.	.	.	.	.
.	.	4G\	-di	.	4G\	-di	.	4G/	-di	.	4G/	-di	.	.	.	.	.	.	.	.
.	.	8.Fn\	mi-	.	8.A-\	mi-	.	8.B-\	mi-	.	8.d\	mi-	.	.	.	.	.	.	.	.
.	.	16F\	-se-	.	16A-\	-se-	.	16B-\	-se-	.	16d\	-se-	.	.	.	.	.	.	.	.
=7	=7	=7	=7	=7	=7	=7	=7	=7	=7	=7	=7	=7	=7	=7	=7	=7	=7	=7	=7	=7
!LO:N:vis=0	!	!LO:LB:g=original	!	!	!	!	!	!	!	!	!	!	!	!	!	!	!LO:N:vis=0	!LO:N:vis=0	!LO:N:vis=0	!LO:N:vis=0
1.r	.	4E-\	-re-	.	4G\	-re-	.	4B-\	-re-	.	4e-\	-re-	.	2.ryy	2.r	2.r	1.r	1.r	1.r	1.r
.	.	4D\	-re	.	4A-\	-re	.	4B-\	-re	.	4f\	-re	.	.	.	.	.	.	.	.
.	.	8.F\	mi-	.	8.A-\	mi-	.	8.B-\	mi-	.	8.d\	mi-	.	.	.	.	.	.	.	.
.	.	16F\	-se-	.	16A-\	-se-	.	16B-\	-se-	.	16d\	-se-	.	.	.	.	.	.	.	.
=8	=8	=8	=8	=8	=8	=8	=8	=8	=8	=8	=8	=8	=8	=8	=8	=8	=8	=8	=8	=8
!	!	!LO:TX:a:t=problem:niejednoznaczny zapis łuku	!	!	!	!	!	!	!	!	!	!	!	!	!	!	!	!	!	!
.	.	(4..E-\	-re-	.	(4..G\	-re-	.	(4..B-\	-re-	.	(4..e-\	-re-	.	2.ryy	2.r	2.r	.	.	.	.
.	.	16c\	.	.	16c\)	.	.	16c\)	.	.	16c\)	.	.	.	.	.	.	.	.	.
.	.	8.G\L)	-re	.	8.G\L	-re	.	8.G/L	-re	.	8.G/L	-re-	.	.	.	.	.	.	.	.
!	!	!	!	!	!	!	!	!LO:TX:a:t=SIC:s=16An	!	!	!	!	!	!	!	!	!	!	!	!
.	.	16An\Jk	.	.	16An\Jk	.	.	16A-/Jk	.	.	16An/Jk	.	.	.	.	.	.	.	.	.
=9	=9	=9	=9	=9	=9	=9	=9	=9	=9	=9	=9	=9	=9	=9	=9	=9	=9	=9	=9	=9
2.r	.	4..B-\	no-	.	4..B-\	no-	.	2.B-\	no-	.	2.B-\	-no-	.	2.ryy	2.r	2.r	2.r	2.r	2.r	2.r
!	!	!	!	!	!LO:N:vis=32	!	!	!	!	!	!	!	!	!	!	!	!	!	!	!
.	.	16BB-/KL	.	.	16D\KL	.	.	.	.	.	.	.	.	.	.	.	.	.	.	.
.	.	8.C/	.	.	8.E-\	.	.	.	.	.	.	.	.	.	.	.	.	.	.	.
.	.	16D/Jk	.	.	16F\Jk	.	.	.	.	.	.	.	.	.	.	.	.	.	.	.
=10	=10	=10	=10	=10	=10	=10	=10	=10	=10	=10	=10	=10	=10	=10	=10	=10	=10	=10	=10	=10
4r	.	2E-\	-bis	.	2E-\	-bis	.	2G/	-bis	.	2G/	-bis	.	2.ryy	2.r	2.r	4r	4r	4r	4r
!LO:TX:a:t=problem:laseczki nut w dół z prawej strony	!	!	!	!	!	!	!	!	!	!	!	!	!	!	!	!	!	!	!	!
4E-X\	.	.	.	.	.	.	.	.	.	.	.	.	.	.	.	.	4b-X\	4gg\	4g\	2g\
4D\	.	4r	.	.	4r	.	.	4r	.	.	4r	.	.	.	.	.	4bn\	4ff\	4f\	.
=11	=11	=11	=11	=11	=11	=11	=11	=11	=11	=11	=11	=11	=11	=11	=11	=11	=11	=11	=11	=11
!	!	!	!	!	!LO:LB:g=original	!	!	!LO:LB:g=original	!	!	!LO:LB:g=original	!	!	!	!	!	!	!	!	!
2.C/	.	2C/	A-	.	2G\	A-	.	2c\	A-	.	2e-\	A-	.	2.ryy	2.r	2.r	2cc\	2ee-X\	2e-X\	2.g\
.	.	4C/	-gnus	.	4F\	-gnus	.	4Bn\	-gnus	.	4d\	-gnus	.	.	.	.	4b\	4dd\	4d\	.
=12	=12	=12	=12	=12	=12	=12	=12	=12	=12	=12	=12	=12	=12	=12	=12	=12	=12	=12	=12	=12
2C/	.	2C/	{A-	.	2E-\	{A-	.	(4c\	{A-	.	2c\	{A-	.	2.ryy	2.r	2.r	2cc\	2cc\	2c/	2g\
.	.	.	.	.	.	.	.	4G\)	.	.	.	.	.	.	.	.	.	.	.	.
4r	.	4GG/	-gnus}	.	4G\	-gnus}	.	4Bn\	-gnus}	.	4d\	-gnus}	.	.	.	.	4r	4r	4r	4r
=13	=13	=13	=13	=13	=13	=13	=13	=13	=13	=13	=13	=13	=13	=13	=13	=13	=13	=13	=13	=13
!LO:TX:a:t=7.	!	!	!	!	!	!	!	!	!	!	!	!	!	!	!	!	!LO:TX:a:t=7.	!LO:TX:a:t=7.	!LO:TX:a:t=7.	!LO:TX:a:t=7.
!LO:N:vis=00	!	!	!	!	!	!	!	!	!	!	!	!	!	!	!	!	!LO:N:vis=00	!LO:N:vis=00	!LO:N:vis=00	!LO:N:vis=00
0.r	.	8.C/L	De-	.	4G\	De-	.	4c\	De-	.	4e-\	De-	.	2.ryy	2.r	2.r	0.r	0.r	0.r	0.r
.	.	16E-/Jk	.	.	.	.	.	.	.	.	.	.	.	.	.	.	.	.	.	.
.	.	4G\	-i	.	4G\	-i	.	4Bn\	-i	.	4d\	-i	.	.	.	.	.	.	.	.
!	!	!	!	!	!	!	!	!	!	!	!LO:TX:a:t=problem:laseczka z lewej strony	!	!	!	!	!	!	!	!	!
.	.	4BBn/	qui	.	4G\	qui	.	4d\	qui	.	8.g\L	qui	.	.	.	.	.	.	.	.
.	.	.	.	.	.	.	.	.	.	.	16f\Jk	.	.	.	.	.	.	.	.	.
=14	=14	=14	=14	=14	=14	=14	=14	=14	=14	=14	=14	=14	=14	=14	=14	=14	=14	=14	=14	=14
!	!	!LO:LB:g=original	!	!	!	!	!	!	!	!	!	!	!	!	!	!	!	!	!	!
.	.	(4.C/	tol-	.	2G\	tol-	.	2c\	tol-	.	(4.e-\	tol-	.	2.ryy	2.r	2.r	.	.	.	.
.	.	8BB-/)	.	.	.	.	.	.	.	.	8en\)	.	.	.	.	.	.	.	.	.
!	!	!	!	!	!LO:TX:a:t=SIC!:lis	!	!	!	!	!	!	!	!	!	!	!	!	!	!	!
.	.	8.AA-/	-lis	.	8.F\	-tis	.	8.c\	-lis	.	8.f\	-lis	.	.	.	.	.	.	.	.
.	.	16AAn/	pec-	.	16F\	pec-	.	16c\	pec-	.	16e-X\	pec-	.	.	.	.	.	.	.	.
=15	=15	=15	=15	=15	=15	=15	=15	=15	=15	=15	=15	=15	=15	=15	=15	=15	=15	=15	=15	=15
.	.	(4BB-/	-ca-	.	2F\	-ca-	.	(4B-\	-ca-	.	(4d\	-ca-	.	2.ryy	2.r	2.r	.	.	.	.
.	.	4C/)	.	.	.	.	.	4An\)	.	.	4c\)	.	.	.	.	.	.	.	.	.
.	.	4D/	-ta	.	4F\	-ta	.	4B-\	-ta	.	4B-\	-ta	.	.	.	.	.	.	.	.
=16	=16	=16	=16	=16	=16	=16	=16	=16	=16	=16	=16	=16	=16	=16	=16	=16	=16	=16	=16	=16
.	.	4E-\	mun-	.	4G\	mun-	.	4G/	mun-	.	8.B-\L	mun-	.	2.ryy	2.r	2.r	.	.	.	.
.	.	.	.	.	.	.	.	.	.	.	16c\Jk	.	.	.	.	.	.	.	.	.
.	.	4E-\	-di	.	4G\	-di	.	4G/	-di	.	4B-\	-di	.	.	.	.	.	.	.	.
.	.	8.D\	mi-	.	8.F\	mi-	.	8.G/	mi-	.	8.Bn\	mi-	.	.	.	.	.	.	.	.
.	.	16D\	-se-	.	16F\	-se-	.	16G/	-se-	.	16B\	-se-	.	.	.	.	.	.	.	.
=17	=17	=17	=17	=17	=17	=17	=17	=17	=17	=17	=17	=17	=17	=17	=17	=17	=17	=17	=17	=17
!LO:N:vis=0	!	!	!	!	!	!	!	!LO:PB:g=original	!	!	!LO:LB:g=original	!	!	!	!	!	!LO:N:vis=0	!LO:N:vis=0	!LO:N:vis=0	!LO:N:vis=0
1.r	.	4C/	-re-	.	4E-\	-re-	.	4G/	-re-	.	4c\	-re-	.	2.ryy	2.r	2.r	1.r	1.r	1.r	1.r
.	.	4BBn/	-re	.	4F\	-re	.	4G/	-re	.	4d\	-re	.	.	.	.	.	.	.	.
.	.	8.D\	mi-	.	8.F\	mi-	.	8.G/	mi-	.	8.Bn\	mi-	.	.	.	.	.	.	.	.
.	.	16D\	-se-	.	16F\	-se-	.	16G/	-se-	.	16B\	-se-	.	.	.	.	.	.	.	.
=18	=18	=18	=18	=18	=18	=18	=18	=18	=18	=18	=18	=18	=18	=18	=18	=18	=18	=18	=18	=18
!	!	!LO:TX:a:t=problem:niejednoznaczny zapis łuku	!	!	!LO:LB:g=original	!	!	!	!	!	!	!	!	!	!	!	!	!	!	!
.	.	(4..C\	-re-	.	(4..E-\	-re-	.	4..G/	-re-	.	(4..c\	-re-	.	2.ryy	2.r	2.r	.	.	.	.
.	.	16A-\)	.	.	16A-\)	.	.	16G/	-re	.	16A-\)	.	.	.	.	.	.	.	.	.
.	.	8.E-\L	-re	.	8.E-\L	-re	.	8.E-/L	no-	.	8.E-/L	-re	.	.	.	.	.	.	.	.
.	.	16F\Jk	.	.	16F\Jk	.	.	16F/Jk	.	.	16F/Jk	.	.	.	.	.	.	.	.	.
=19	=19	=19	=19	=19	=19	=19	=19	=19	=19	=19	=19	=19	=19	=19	=19	=19	=19	=19	=19	=19
2.r	.	4..G\	no-	.	4..G\	no-	.	(>2.G/	-bis	.	2.G/	no-	.	2.ryy	2.r	2.r	2.r	2.r	2.r	2.r
.	.	16GG/KL	.	.	16BBn/KL	.	.	.	.	.	.	.	.	.	.	.	.	.	.	.
.	.	8.AA-/	.	.	8.C/	.	.	.	.	.	.	.	.	.	.	.	.	.	.	.
.	.	16BBn/Jk	.	.	16D/Jk	.	.	.	.	.	.	.	.	.	.	.	.	.	.	.
=20	=20	=20	=20	=20	=20	=20	=20	=20	=20	=20	=20	=20	=20	=20	=20	=20	=20	=20	=20	=20
!LO:LB:g=original	!	!LO:LB:g=original	!	!	!	!	!	!LO:TX:a:t=SIC:s=2E-	!	!	!	!	!	!	!	!	!LO:LB:g=original	!LO:LB:g=original	!LO:LB:g=original	!
4r	.	2C/	-bis	.	2C/	-bis	.	2F/)	.	.	2E-/	-bis.	.	2.ryy	2.r	2.r	4r	4r	4r	4r
4C/	.	.	.	.	.	.	.	.	.	.	.	.	.	.	.	.	4ee-X\	2ee-X\	4e-X\	2g\
4BB-X/	.	4r	.	.	4r	.	.	4r	.	.	4r	.	.	.	.	.	4dd-X\	.	4d-X\	.
=21	=21	=21	=21	=21	=21	=21	=21	=21	=21	=21	=21	=21	=21	=21	=21	=21	=21	=21	=21	=21
2.AA-X/	.	2AA-/	A-	.	2E-\	A-	.	2A-\	A-	.	2c\	A-	.	2.ryy	2.r	2.r	2cc\	2.ee-X\	2c/	2a-X\
.	.	4AA-/	-gnus	.	4D-X\	-gnus	.	4G\	-gnus	.	4B-\	-gnus	.	.	.	.	4b-X\	.	4d-X/	4g\
=22	=22	=22	=22	=22	=22	=22	=22	=22	=22	=22	=22	=22	=22	=22	=22	=22	=22	=22	=22	=22
2AA-/	.	2AA-/	{A-	.	2C\	{A-	.	(4A-\	{A-	.	2A-\	{A-	.	2.ryy	2.r	2.r	2cc\	2ee-X\	2c/	2a-X\
.	.	.	.	.	.	.	.	4E-/)	.	.	.	.	.	.	.	.	.	.	.	.
4r	.	4E-\	-gnus}	.	4E-\	-gnus}	.	4G/	-gnus}	.	4B-\	-gnus}	.	.	.	.	4r	4r	4r	4r
=23	=23	=23	=23	=23	=23	=23	=23	=23	=23	=23	=23	=23	=23	=23	=23	=23	=23	=23	=23	=23
!LO:TX:a:t=2.	!	!	!	!	!	!	!	!	!	!	!LO:LB:g=original	!	!	!	!	!	!LO:TX:a:t=2.	!LO:TX:a:t=2.	!LO:TX:a:t=2.	!LO:TX:a:t=2.
!LO:N:vis=0	!	!	!	!	!	!	!	!	!	!	!	!	!	!	!	!	!LO:N:vis=0	!LO:N:vis=0	!LO:N:vis=0	!LO:N:vis=0
1.r	.	8.AA-/L	De-	.	4E-\	De-	.	4A-\	De-	.	4c\	De-	.	2.ryy	2.r	2.r	1.r	1.r	1.r	1.r
.	.	16C/Jk	.	.	.	.	.	.	.	.	.	.	.	.	.	.	.	.	.	.
.	.	4E-\	-i	.	4E-\	-i	.	4G\	-i	.	4B-\	-i.	.	.	.	.	.	.	.	.
.	.	4r	.	.	4r	.	.	4r	.	.	4r	.	.	.	.	.	.	.	.	.
=24	=24	=24	=24	=24	=24	=24	=24	=24	=24	=24	=24	=24	=24	=24	=24	=24	=24	=24	=24	=24
!	!	!	!	!	!	!	!	!LO:LB:g=original	!	!	!	!	!	!	!	!	!	!	!	!
.	.	4..E-\	Do-	.	4..E-\	Do-	.	4..e-\	Do-	.	4..e-\	Do-	.	2.ryy	2.r	2.r	.	.	.	.
.	.	16C\	-na	.	16C\	-na	.	16c\	-na	.	16c\	-na	.	.	.	.	.	.	.	.
.	.	8.AA-/	no-	.	8.AA-/	no-	.	8.A-\	no-	.	8.A-\	no-	.	.	.	.	.	.	.	.
.	.	16BB-/	-bis	.	16BB-/	-bis	.	16B-\	-bis	.	16B-\	-bis	.	.	.	.	.	.	.	.
=25	=25	=25	=25	=25	=25	=25	=25	=25	=25	=25	=25	=25	=25	=25	=25	=25	=25	=25	=25	=25
!	!	!	!	!	!LO:LB:g=original	!	!	!	!	!	!	!	!	!	!	!	!	!	!	!LO:LB:g=original
4r	.	2C/	pa-	.	2C/	pa-	.	2c\	pa-	.	2.c\	pa-	.	2.ryy	2.r	2.r	4r	4r	4r	4r
4r	.	.	.	.	.	.	.	.	.	.	.	.	.	.	.	.	4r	4r	4r	4r
4BB-/	.	4BB-/	.	.	4En\	.	.	4G\	.	.	.	.	.	.	.	.	4c/	4cc\	4e\	4g\
=26	=26	=26	=26	=26	=26	=26	=26	=26	=26	=26	=26	=26	=26	=26	=26	=26	=26	=26	=26	=26
2.AA-/	.	2.AA-/	.	.	2F\	.	.	2F/	.	.	2.c\	.	.	2.ryy	2.r	2.r	2.c/	2.cc\	2f\	2f\
.	.	.	.	.	4E-X\	.	.	4F#X/	.	.	.	.	.	.	.	.	.	.	4e-X\	4f#X\
=27	=27	=27	=27	=27	=27	=27	=27	=27	=27	=27	=27	=27	=27	=27	=27	=27	=27	=27	=27	=27
2.GG/	.	2.GG/	.	.	4..En\	.	.	4..G/	.	.	2.c\	.	.	2.ryy	2.r	2.r	2c/	4..cc\	4en\	4..g\
.	.	.	.	.	.	.	.	.	.	.	.	.	.	.	.	.	.	.	2c/	.
!	!	!	!	!	!LO:N:vis=32	!	!	!LO:N:vis=32	!	!	!	!	!	!	!	!	!	!	!	!
.	.	.	.	.	16C/KL	.	.	16En/KL	.	.	.	.	.	.	.	.	.	16cc\L	.	16e\L
.	.	.	.	.	8.D/	.	.	8.F/	.	.	.	.	.	.	.	.	4cc\	8.dd\	.	8.f\
.	.	.	.	.	16E/Jk	.	.	16G/Jk	.	.	.	.	.	.	.	.	.	16ee\Jk	.	16g\Jk
=28	=28	=28	=28	=28	=28	=28	=28	=28	=28	=28	=28	=28	=28	=28	=28	=28	=28	=28	=28	=28
!	!	!LO:LB:g=original	!	!	!	!	!	!	!	!	!	!	!	!	!	!	!	!	!	!
2.GG/	.	2.GG/	.	.	2.D\	.	.	2.F/	.	.	4c\	.	.	2.ryy	2.r	2.r	2cc\	2.dd\	2.f\	2.g\
.	.	.	.	.	.	.	.	.	.	.	8Bn\L	.	.	.	.	.	.	.	.	.
.	.	.	.	.	.	.	.	.	.	.	8An\J	.	.	.	.	.	.	.	.	.
.	.	.	.	.	.	.	.	.	.	.	4B\	.	.	.	.	.	4b\	.	.	.
=29	=29	=29	=29	=29	=29	=29	=29	=29	=29	=29	=29	=29	=29	=29	=29	=29	=29	=29	=29	=29
!	!	!	!	!	!	!	!	!	!	!	!	!	!	!	!	!	!	!	!LO:LB:g=original	!
2C/	.	2C/	-cem	.	2C/	-cem.	.	2En/	-cem.	.	2c\	-cem.	.	2.ryy	2.r	2.r	2cc\	2cc\	2e\	2g\
4r	.	8.C/	do-	.	4r	.	.	4r	.	.	4r	.	.	.	.	.	4r	4r	4r	4r
.	.	16C/	-na	.	.	.	.	.	.	.	.	.	.	.	.	.	.	.	.	.
=30||	=30||	=30||	=30||	=30||	=30||	=30||	=30||	=30||	=30||	=30||	=30||	=30||	=30||	=30||	=30||	=30||	=30||	=30||	=30||	=30||
!LO:LB:g=original	!	!	!	!	!LO:LB:g=original	!	!	!LO:LB:g=original	!	!	!LO:LB:g=original	!	!	!	!	!	!LO:LB:g=original	!	!	!LO:LB:g=original
*k[]	*	*k[]	*	*	*k[]	*	*	*k[]	*	*	*k[]	*	*	*k[]	*k[]	*k[]	*k[]	*k[]	*k[b-]	*k[b-]
*	*	*	*	*	*	*	*	*	*	*	*	*	*	*	*	*	*	*	*	*
*M2/4	*	*M2/4	*	*	*M2/4	*	*	*M2/4	*	*	*M2/4	*	*	*M2/4	*M2/4	*M2/4	*M2/4	*M2/4	*M2/4	*M2/4
!LO:TX:a:t=7.	!	!	!	!	!	!	!	!	!	!	!LO:N:vis=1	!	!	!	!LO:TX:b:t=20.	!LO:TX:b:t=20.	!LO:TX:a:t=9.	!LO:TX:b:t=9.	!LO:TX:b:t=8.	!LO:TX:b:t=8.
!LO:TX:a:Bi:t=Dona	!	!LO:TX:a:B:t=Andante	!	!	!LO:TX:a:B:t=Andante	!	!	!LO:TX:a:B:t=Andante	!	!	!LO:TX:a:B:t=Andante	!	!	!	!LO:TX:a:B:t=Andante	!LO:TX:a:B:t=Andante	!LO:TX:a:B:t=Andante	!LO:TX:a:B:t=Andante	!LO:TX:a:B:t=Andante	!LO:TX:a:B:t=Andante
!LO:N:vis=00	!	!	!	!	!	!	!	!	!	!	!	!	!	!	!	!	!	!LO:TX:a:t=Dona	!	!
!	!	!	!	!	!	!	!	!	!	!	!	!	!	!	!	!	!LO:N:vis=00	!LO:N:vis=00	!LO:N:vis=00	!LO:N:vis=00
0r	.	[>2C/	no-	.	4r	.	.	4r	.	.	2r	.	.	2ryy	2r	2r	0r	0r	0r	0r
.	.	.	.	.	8.E\	do-	.	8.G/	do-	.	.	.	.	.	.	.	.	.	.	.
.	.	.	.	.	16E\	-na	.	16G/	-na	.	.	.	.	.	.	.	.	.	.	.
=31	=31	=31	=31	=31	=31	=31	=31	=31	=31	=31	=31	=31	=31	=31	=31	=31	=31	=31	=31	=31
.	.	2C/]	.	.	4F\	no-	.	4A/	no-	.	4r	.	.	2ryy	2r	2r	.	.	.	.
.	.	.	.	.	4E\	-bis	.	4G/	-bis	.	8.c\	do-	.	.	.	.	.	.	.	.
.	.	.	.	.	.	.	.	.	.	.	16c\	-na	.	.	.	.	.	.	.	.
=32	=32	=32	=32	=32	=32	=32	=32	=32	=32	=32	=32	=32	=32	=32	=32	=32	=32	=32	=32	=32
.	.	4C/	.	.	2G\	pa-	.	2G/	pa-	.	[2d\	no-	.	2ryy	2r	2r	.	.	.	.
.	.	4BB/	-bis	.	.	.	.	.	.	.	.	.	.	.	.	.	.	.	.	.
=33	=33	=33	=33	=33	=33	=33	=33	=33	=33	=33	=33	=33	=33	=33	=33	=33	=33	=33	=33	=33
.	.	4C/	pa-	.	2E\	.	.	4G/	.	.	4d\]	.	.	2ryy	2r	2r	.	.	.	.
.	.	4AA/	.	.	.	.	.	4A/	.	.	4c\	-bis	.	.	.	.	.	.	.	.
=34	=34	=34	=34	=34	=34	=34	=34	=34	=34	=34	=34	=34	=34	=34	=34	=34	=34	=34	=34	=34
!LO:N:vis=0	!	!	!	!	!	!	!	!	!	!	!	!	!	!	!	!	!LO:N:vis=00	!LO:N:vis=00	!LO:N:vis=00	!LO:N:vis=00
1r	.	[2D\	.	.	2F\	.	.	4F/	.	.	4A\	pa-	.	2ryy	2r	2r	0r	0r	0r	0r
.	.	.	.	.	.	.	.	4A/	.	.	8.e\L	.	.	.	.	.	.	.	.	.
.	.	.	.	.	.	.	.	.	.	.	16d\Jk	.	.	.	.	.	.	.	.	.
=35	=35	=35	=35	=35	=35	=35	=35	=35	=35	=35	=35	=35	=35	=35	=35	=35	=35	=35	=35	=35
.	.	4D\]	.	.	4F\	.	.	4B\	.	.	4f\	.	.	2ryy	2r	2r	.	.	.	.
.	.	4C/	.	.	4G\	.	.	4c\	.	.	4e\	.	.	.	.	.	.	.	.	.
=36	=36	=36	=36	=36	=36	=36	=36	=36	=36	=36	=36	=36	=36	=36	=36	=36	=36	=36	=36	=36
!	!	!	!	!	!	!	!	!	!	!	!LO:LB:g=original	!	!	!	!	!	!	!	!	!
2r	.	4BB/	.	.	2G\	.	.	4d\	.	.	4d\	.	.	2ryy	2r	2r	.	.	.	.
.	.	8.C/L	.	.	.	.	.	4c\	.	.	8.e\L	.	.	.	.	.	.	.	.	.
.	.	16E/Jk	.	.	.	.	.	.	.	.	16c\Jk	.	.	.	.	.	.	.	.	.
=37	=37	=37	=37	=37	=37	=37	=37	=37	=37	=37	=37	=37	=37	=37	=37	=37	=37	=37	=37	=37
!	!	!LO:LB:g=original	!	!	!	!	!	!	!	!	!	!	!	!	!	!	!	!	!	!
!	!	!LO:TX:a:t=SIC!:cem	!	!	!LO:LB:g=original	!	!	!LO:LB:g=original	!	!	!	!	!	!	!	!	!	!	!	!
4r	.	4G\	-cen	.	4G\	-cem	.	4B\	-cem	.	4d\	-cem	.	2ryy	2r	2r	.	.	.	.
4C/	.	8.C\	do-	.	4r	.	.	4r	.	.	4r	.	.	.	.	.	.	.	.	.
.	.	16C\	-na	.	.	.	.	.	.	.	.	.	.	.	.	.	.	.	.	.
=38	=38	=38	=38	=38	=38	=38	=38	=38	=38	=38	=38	=38	=38	=38	=38	=38	=38	=38	=38	=38
!	!	!	!	!	!	!	!	!	!	!	!LO:N:vis=1	!	!	!	!	!	!	!	!	!
!	!	!	!	!	!	!	!	!	!	!	!LO:TX:a:t=1.	!	!	!	!	!	!	!	!	!
[2C/	.	2C/	no-	.	4r	.	.	4r	.	.	2r	.	.	2ryy	2r	2r	2r	2r	4r	4r
.	.	.	.	.	8.E\	do-	.	8.G/	do-	.	.	.	.	.	.	.	.	.	4e\	4g\
.	.	.	.	.	16E\	-na	.	16G/	-na	.	.	.	.	.	.	.	.	.	.	.
=39	=39	=39	=39	=39	=39	=39	=39	=39	=39	=39	=39	=39	=39	=39	=39	=39	=39	=39	=39	=39
2C/]	.	[>2C/	.	.	4F\	no-	.	4A\	no-	.	4r	.	.	2ryy	2r	2r	4r	4r	4f\	4a\
.	.	.	.	.	4E\	-bis	.	4G\	-bis	.	8.c\	do-	.	.	.	.	4e/	4cc\	4c\	4g\
.	.	.	.	.	.	.	.	.	.	.	16c\	-na	.	.	.	.	.	.	.	.
=40	=40	=40	=40	=40	=40	=40	=40	=40	=40	=40	=40	=40	=40	=40	=40	=40	=40	=40	=40	=40
4C/	.	4C/]	.	.	2G\	pa-	.	2G/	pa-	.	[2d\	no-	.	2ryy	2r	2r	2g/	[2dd\	[2g\	[2g\
4BB/	.	4BB/	-bis	.	.	.	.	.	.	.	.	.	.	.	.	.	.	.	.	.
=41	=41	=41	=41	=41	=41	=41	=41	=41	=41	=41	=41	=41	=41	=41	=41	=41	=41	=41	=41	=41
4C/	.	4C/	pa-	.	2E\	.	.	4G/	.	.	4d\]	.	.	2ryy	2r	2r	2e/	4dd\]	4g\]	4g\]
4AA/	.	4AA/	.	.	.	.	.	4A/	.	.	4c\	-bis	.	.	.	.	.	4cc\	4c\	4a\
=42	=42	=42	=42	=42	=42	=42	=42	=42	=42	=42	=42	=42	=42	=42	=42	=42	=42	=42	=42	=42
!LO:TX:a:t=SIC:s:D	!	!	!	!	!	!	!	!	!	!	!	!	!	!	!	!	!LO:N:vis=1	!	!	!
2E\	.	[2D\	.	.	2F\	.	.	4F/	.	.	4A\	pa-	.	2ryy	2r	2r	2r	4a\	2f\	2a\
.	.	.	.	.	.	.	.	4A/	.	.	8.e\L	.	.	.	.	.	.	8.ee\L	.	.
.	.	.	.	.	.	.	.	.	.	.	16d\Jk	.	.	.	.	.	.	16dd\Jk	.	.
=43	=43	=43	=43	=43	=43	=43	=43	=43	=43	=43	=43	=43	=43	=43	=43	=43	=43	=43	=43	=43
4D\	.	4D\]	.	.	4F\	.	.	4B\	.	.	4f\	.	.	2ryy	2r	2r	4b\	4dd\	4f\	4f\
!	!	!	!	!	!	!	!	!	!	!	!LO:TX:b:t=V.S.	!	!	!	!	!	!	!	!	!
4C\	.	4C\	.	.	4G\	.	.	4c\	.	.	4e\	.	.	.	.	.	4cc\	4ee\	4e\	4g\
=44	=44	=44	=44	=44	=44	=44	=44	=44	=44	=44	=44	=44	=44	=44	=44	=44	=44	=44	=44	=44
!LO:LB:g=original	!	!	!	!	!	!	!	!	!	!	!LO:PB:g=original	!	!	!	!	!	!	!	!	!
4F\	.	4F\	.	.	4A\	.	.	4c\	.	.	2d\	.	.	2ryy	2r	2r	4cc\	2dd\	4f\	4a\
8.G\L	.	8.G\L	.	.	8.G\L	.	.	8.B\L	.	.	.	.	.	.	.	.	8.b\L	.	8.g\L	8.g\L
16F\Jk	.	16F\Jk	.	.	16A\Jk	.	.	16A\Jk	.	.	.	.	.	.	.	.	16a\Jk	.	16f\Jk	16a\Jk
=45	=45	=45	=45	=45	=45	=45	=45	=45	=45	=45	=45	=45	=45	=45	=45	=45	=45	=45	=45	=45
!	!	!	!	!	!LO:LB:g=original	!	!	!	!	!	!	!	!	!	!	!	!	!	!	!
4E\	.	4E\	-cem	.	4G#X\	-cem,	.	4B\	-cem	.	4e\	-cem.	.	2ryy	2r	2r	4e/	4ee\	4e\	4g#X\
4r	.	4r	.	.	8.G#\	do-	.	8.B\	do-	.	4r	.	.	.	.	.	4r	4r	4r	4r
!	!	!	!	!	!LO:TX:a:t=SIC!:na	!	!	!	!	!	!	!	!	!	!	!	!	!	!	!
.	.	.	.	.	16G#\	-no	.	16B\	-na	.	.	.	.	.	.	.	.	.	.	.
=46	=46	=46	=46	=46	=46	=46	=46	=46	=46	=46	=46	=46	=46	=46	=46	=46	=46	=46	=46	=46
!	!	!LO:LB:g=original	!	!	!	!	!	!LO:LB:g=original	!	!	!	!	!	!	!	!	!LO:TX:a:t=1	!LO:LB:g=original	!LO:LB:g=original	!
!LO:N:vis=1	!	!	!	!	!	!	!	!	!	!	!	!	!	!	!	!	!LO:N:vis=1	!LO:N:vis=1	!LO:TX:a:t=1	!LO:TX:a:t=1
2r	.	4r	.	.	2G#X\	no-	.	2B\	no-	.	4r	.	.	2ryy	2r	2r	2r	2r	2r	2r
.	.	8.E\	Do-	.	.	.	.	.	.	.	8.e\	do-	.	.	.	.	.	.	.	.
.	.	16E\	-na	.	.	.	.	.	.	.	16e\	-na	.	.	.	.	.	.	.	.
=47	=47	=47	=47	=47	=47	=47	=47	=47	=47	=47	=47	=47	=47	=47	=47	=47	=47	=47	=47	=47
!	!	!	!	!	!	!	!	!	!	!	!	!	!	!	!	!	!	!	!	!LO:LB:g=original
4r	.	4D\	no-	.	2Gn\	-bis	.	4B\	.	.	4f\	no-	.	2ryy	2r	2r	4r	4r	4r	4r
4C/	.	4C\	-bis	.	.	.	.	[4c\	-bis	.	4e\	-bis	.	.	.	.	4cc\	4ee\	4c/	4g\
=48	=48	=48	=48	=48	=48	=48	=48	=48	=48	=48	=48	=48	=48	=48	=48	=48	=48	=48	=48	=48
4F\	.	4F\	pa-	.	4A\	pa-	.	4c\]	.	.	2d\	pa-	.	2ryy	2r	2r	4cc\	2dd\	4f\	4a\
!LO:TX:a:t=problem:mixed beam	!	!LO:TX:a:t=problem:mixed beam	!	!	!	!	!	!	!	!	!	!	!	!	!	!	!	!	!	!
8G\L	.	8G\L	.	.	4G\	.	.	4B\	pa-	.	.	.	.	.	.	.	4b\	.	4g\	4g\
8GG/J	.	8GG/J	.	.	.	.	.	.	.	.	.	.	.	.	.	.	.	.	.	.
=49	=49	=49	=49	=49	=49	=49	=49	=49	=49	=49	=49	=49	=49	=49	=49	=49	=49	=49	=49	=49
!	!	!	!	!	!LO:TX:b:t=V.S.	!	!	!	!	!	!	!	!	!	!	!	!	!	!	!
2AA;/	.	2AA;/	-cem	.	2F#X;\	-cem.	.	2c;\	-cem.	.	2c;\	-cem.	.	2ryy	2r	2r	2cc;\	2cc;\	2e-X;\	2f#X;\
=50||	=50||	=50||	=50||	=50||	=50||	=50||	=50||	=50||	=50||	=50||	=50||	=50||	=50||	=50||	=50||	=50||	=50||	=50||	=50||	=50||
!	!	!	!	!	!LO:PB:g=original	!	!	!	!	!	!	!	!	!	!	!	!LO:LB:g=original	!	!	!
*M6/8	*	*M6/8	*	*	*M6/8	*	*	*M6/8	*	*	*M6/8	*	*	*M6/8	*M6/8	*M6/8	*M6/8	*M6/8	*M6/8	*M6/8
!LO:TX:a:B:t=Allo ma non troppo	!	!LO:TX:a:B:t=Allegro ma non troppo	!	!	!LO:TX:a:B:t=Allo ma non troppo	!	!	!LO:TX:a:B:t=Allo ma non troppo	!	!	!LO:TX:a:B:t=Allo ma non troppo	!	!	!	!LO:TX:a:B:t=Alle ma non troppo	!LO:TX:a:B:t=Allo ma non troppo	!LO:TX:a:B:t=Allegro ma non troppo	!	!LO:TX:a:B:t=Allo ma non troppo	!LO:TX:a:B:t=Allo ma non troppo
[2.GG/	.	2.GG/	Do-	.	2.G\	Do-	.	4.G/	Do-	.	4.B\	Do-	.	2.ryy	[2.G/	[2.g/	[2.G/	[2.g/	[2.g\	[2.g\
.	.	.	.	.	.	.	.	4.G/	.	.	4.c\	.	.	.	.	.	.	.	.	.
=51	=51	=51	=51	=51	=51	=51	=51	=51	=51	=51	=51	=51	=51	=51	=51	=51	=51	=51	=51	=51
4.GG/]	.	[4.GG/	-na	.	[4.G\	-na	.	4.A#X\	.	.	4.c#X\	.	.	2.ryy	4.G/]	4.g/]	4.G/]	4.g/]	4.g\]	4.g\]
4GG/	.	4GG/]	.	.	4G\]	.	.	4B\	.	.	4d\	.	.	.	4G/	4g/	4G/	4g/	4g\	4g\
8r	.	8r	.	.	8r	.	.	8c\	.	.	8e\	.	.	.	8r	8r	8r	8r	8r	8r
=52	=52	=52	=52	=52	=52	=52	=52	=52	=52	=52	=52	=52	=52	=52	=52	=52	=52	=52	=52	=52
!	!	!LO:LB:g=original	!	!	!	!	!	!	!	!	!	!	!	!	!	!	!	!	!	!
!LO:TX:a:t=3.	!	!LO:TX:a:t=3.	!	!	!LO:TX:a:t=3.	!	!	!	!	!	!LO:LB:g=original	!	!	!	!LO:TX:a:t=3.	!LO:TX:b:t=3.	!LO:TX:a:t=3.	!LO:TX:a:t=3.	!LO:TX:b:t=3.	!LO:TX:a:t=3.
!LO:N:vis=0	!	!LO:N:vis=0	!	!	!LO:N:vis=0	!	!	!	!	!	!	!	!	!	!LO:N:vis=0	!LO:N:vis=0	!LO:N:vis=0	!LO:N:vis=0	!LO:N:vis=0	!LO:N:vis=0
1.r	.	1.r	.	.	1.r	.	.	[4.d\	.	.	[4.f\	.	.	2.ryy	1.r	1.r	1.r	1.r	1.r	1.r
.	.	.	.	.	.	.	.	8.d\L]	.	.	8.f\L]	.	.	.	.	.	.	.	.	.
.	.	.	.	.	.	.	.	16c\K	.	.	16e\K	.	.	.	.	.	.	.	.	.
.	.	.	.	.	.	.	.	8B\J	.	.	8d\J	.	.	.	.	.	.	.	.	.
=53	=53	=53	=53	=53	=53	=53	=53	=53	=53	=53	=53	=53	=53	=53	=53	=53	=53	=53	=53	=53
!	!	!	!	!	!	!	!	!LO:LB:g=original	!	!	!	!	!	!	!	!	!	!	!	!
.	.	.	.	.	.	.	.	4A#X\	.	.	4c#X\	.	.	2.ryy	.	.	.	.	.	.
.	.	.	.	.	.	.	.	8B\	.	.	8d\	.	.	.	.	.	.	.	.	.
.	.	.	.	.	.	.	.	8.d\L	.	.	8.f\L	.	.	.	.	.	.	.	.	.
.	.	.	.	.	.	.	.	16c\K	.	.	16e\K	.	.	.	.	.	.	.	.	.
.	.	.	.	.	.	.	.	8B\J	.	.	8d\J	.	.	.	.	.	.	.	.	.
=54	=54	=54	=54	=54	=54	=54	=54	=54	=54	=54	=54	=54	=54	=54	=54	=54	=54	=54	=54	=54
!	!	!LO:TX:b:t=V.S.	!	!	!	!	!	!	!	!	!	!	!	!	!	!	!	!	!	!
2.r	.	2.r	.	.	2.r	.	.	8.A#X\L	.	.	8.c#X\L	.	.	2.ryy	2.r	2.r	2.r	2.r	2.r	2.r
.	.	.	.	.	.	.	.	16B\K	.	.	16d\K	.	.	.	.	.	.	.	.	.
.	.	.	.	.	.	.	.	8c\J	.	.	8e\J	.	.	.	.	.	.	.	.	.
.	.	.	.	.	.	.	.	4d\	-na	.	8.f\L	.	.	.	.	.	.	.	.	.
.	.	.	.	.	.	.	.	.	.	.	16A\K	.	.	.	.	.	.	.	.	.
.	.	.	.	.	.	.	.	8r	.	.	8B\J	.	.	.	.	.	.	.	.	.
=55	=55	=55	=55	=55	=55	=55	=55	=55	=55	=55	=55	=55	=55	=55	=55	=55	=55	=55	=55	=55
!LO:LB:g=original	!	!LO:PB:g=original	!	!	!	!	!	!	!	!	!	!	!	!	!	!	!	!	!	!
[4.C/	.	4.C/	do-	.	4.E\	do-	.	4.G/	do-	.	4.c\	.	.	2.ryy	8.c/L	8.c/L	[4.e/	[4.cc\	[4.c/	4.g\
.	.	.	.	.	.	.	.	.	.	.	.	.	.	.	16e/K	16e/K	.	.	.	.
.	.	.	.	.	.	.	.	.	.	.	.	.	.	.	8g/J	8g/J	.	.	.	.
!	!	!	!	!	!	!	!	!	!	!	!	!	!	!	!LO:TX:a:t=problem:laseczki nut w dół z prawej strony	!LO:TX:a:t=problem:laseczki nut w dół z prawej strony	!	!	!	!
4C/]	.	4.C/	-na	.	8.E\L	.	.	4.G/	-na	.	8.c\L	.	.	.	4cc\	4cc\	4e/]	4cc\]	4c/]	4g\
.	.	.	.	.	16D\Jk	.	.	.	.	.	16B\Jk	.	.	.	.	.	.	.	.	.
8r	.	.	.	.	8E\	-na	.	.	.	.	8c\	-na	.	.	8r	8r	8r	8r	8r	8r
=56	=56	=56	=56	=56	=56	=56	=56	=56	=56	=56	=56	=56	=56	=56	=56	=56	=56	=56	=56	=56
!	!	!	!	!	!	!	!	!	!	!	!	!	!	!	!LO:LB:g=original	!	!	!	!	!
[4.GG/	.	4GG/	do-	.	4G\	no-	.	4B\	{do-	.	4d\	no-	.	2.ryy	[4.g/	4.dd\	[4.b\	[4.dd\	[4.g\	4.g\
.	.	8GG/	-na	.	8G\	-bis	.	8B\	-na}	.	8d\	-bis	.	.	.	.	.	.	.	.
4GG/]	.	4G\	no-	.	4G\	{no-	.	8.B\L	no-	.	8.d\L	no-	.	.	4g/]	4dd\	4b\]	4dd\]	4g\]	4g\
.	.	.	.	.	.	.	.	16A#X\Jk	.	.	16c#X\Jk	.	.	.	.	.	.	.	.	.
8r	.	8G\	-bis	.	8G\	-bis}	.	8B\	-bis	.	8d\	-bis	.	.	8r	8r	8r	8r	8r	8r
=57	=57	=57	=57	=57	=57	=57	=57	=57	=57	=57	=57	=57	=57	=57	=57	=57	=57	=57	=57	=57
!	!	!	!	!	!	!	!	!	!	!	!LO:LB:g=original	!	!	!	!LO:TX:a:t=5.	!LO:TX:a:t=5.	!	!	!	!
!	!	!	!	!	!	!	!	!	!	!	!	!	!	!	!LO:N:vis=00	!LO:N:vis=00	!	!	!	!
[4.C/	.	4.C/	pa-	.	4.G\	pa-	.	4.c\	pa-	.	4.e\	pa-	.	2.ryy	0.r	0.r	2.cc\	2.ee\	2.c/	2.g\
4C/]	.	4C/	-cem	.	4E\	-cem	.	4G/	-cem	.	4c\	-cem	.	.	.	.	.	.	.	.
8r	.	8r	.	.	8r	.	.	8r	.	.	8r	.	.	.	.	.	.	.	.	.
=58	=58	=58	=58	=58	=58	=58	=58	=58	=58	=58	=58	=58	=58	=58	=58	=58	=58	=58	=58	=58
!	!	!	!	!	!LO:LB:g=original	!	!LO:DY:t=p:	!	!	!	!	!	!	!	!	!	!	!LO:LB:g=original	!LO:LB:g=original	!LO:LB:g=original
!	!LO:DY:b	!	!	!LO:DY:b	!	!	!LO:DY:a	!LO:LB:g=original	!	!LO:DY:a	!	!	!LO:DY:a	!	!	!	!LO:N:vis=1	!LO:N:vis=1	!LO:TX:a:t=1	!LO:N:vis=1
4.C/	p	4.C/	pa-	p	4.G\	pa-	p	4.c\	pa-	p	4.e\	pa-	p	2.ryy	.	.	2.r	2.r	2.r	2.r
4C/	.	4C/	-cem	.	4E\	-cem	.	4G\	-cem	.	4c\	-cem	.	.	.	.	.	.	.	.
8r	.	8r	.	.	8r	.	.	8r	.	.	8r	.	.	.	.	.	.	.	.	.
=59	=59	=59	=59	=59	=59	=59	=59	=59	=59	=59	=59	=59	=59	=59	=59	=59	=59	=59	=59	=59
2.C/	.	2.C/	do-	.	(4.C\	do-	.	(4.A\	do-	.	(4.f\	do-	.	2.ryy	.	.	4.cc\	4.cc\	2.f\	4.a\
.	.	.	.	.	4.F\)	.	.	4.B\)	.	.	4.d\)	.	.	.	.	.	4.b\	4.dd\	.	4.f\
=60	=60	=60	=60	=60	=60	=60	=60	=60	=60	=60	=60	=60	=60	=60	=60	=60	=60	=60	=60	=60
8C/	.	8.C/L	.	.	8.E\L	.	.	4c\	-na	.	4c\	-na	.	2.ryy	.	.	8cc\	8.cc\L	8c/	8.e\L
8r	.	.	.	.	.	.	.	.	.	.	.	.	.	.	.	.	8r	.	8r	.
.	.	16D/Jk	.	.	16F\Jk	.	.	.	.	.	.	.	.	.	.	.	.	16dd\K	.	16f\K
8r	.	8E/	-na	.	8G\	-na	.	8r	.	.	8r	.	.	.	.	.	8r	8ee\J	8r	8g\J
!	!	!	!	!	!	!	!	!	!	!	!LO:TX:a:t=problem:brak pauzy ćwierćnutowej	!	!	!	!	!	!	!	!	!
8C/	.	8.E/L	no-	.	8.G\L	no-	.	4r	.	.	4ryy	.	.	.	.	.	8cc\	8.ee\L	8c/	8.g\L
8r	.	.	.	.	.	.	.	.	.	.	.	.	.	.	.	.	8r	.	8r	.
.	.	16D/Jk	.	.	16F\Jk	.	.	.	.	.	.	.	.	.	.	.	.	16dd\K	.	16f\K
!	!	!	!	!	!	!	!	!	!	!	!LO:TX:a:t=problem:brak pauzy ósemkowej	!	!	!	!	!	!	!	!	!
8r	.	8C/	-bis	.	8E\	-bis	.	8r	.	.	8ryy	.	.	.	.	.	8r	8cc\J	8r	8e\J
=61	=61	=61	=61	=61	=61	=61	=61	=61	=61	=61	=61	=61	=61	=61	=61	=61	=61	=61	=61	=61
!	!	!LO:LB:g=original	!	!	!	!	!	!LO:TX:a:t=problem:niejednoznaczny zapis łuku	!	!	!	!	!	!	!	!	!LO:LB:g=original	!	!	!
2.C/	.	2.C/	do-	.	(4.C/	do-	.	(4.A\	do-	.	(4.f\	no-	.	2.ryy	2.r	2.r	8cc\	8dd\	2.f\	4.a\
.	.	.	.	.	.	.	.	.	.	.	.	.	.	.	.	.	8r	8r	.	.
.	.	.	.	.	.	.	.	.	.	.	.	.	.	.	.	.	8r	8r	.	.
.	.	.	.	.	4.F\)	.	.	4.B\	.	.	4.d\)	.	.	.	.	.	8b\	8dd\	.	4.f\
.	.	.	.	.	.	.	.	.	.	.	.	.	.	.	.	.	8r	8r	.	.
.	.	.	.	.	.	.	.	.	.	.	.	.	.	.	.	.	8r	8r	.	.
=62	=62	=62	=62	=62	=62	=62	=62	=62	=62	=62	=62	=62	=62	=62	=62	=62	=62	=62	=62	=62
8C/	.	8.C/L	.	.	8.E\L	.	.	4c\)	-na	.	4c\	-bis	.	2.ryy	8e/	8cc\	8cc\	8.cc\L	8c/	8.e\L
8r	.	.	.	.	.	.	.	.	.	.	.	.	.	.	8r	8r	8r	.	8r	.
.	.	16D/Jk	.	.	16F\Jk	.	.	.	.	.	.	.	.	.	.	.	.	16dd\K	.	16f\K
8r	.	8E/	-na	.	8G\	-na	.	8r	.	.	8r	.	.	.	8r	8r	8r	8ee\J	8r	8g\J
8C/	.	8.E/L	no-	.	8.G\L	no-	.	4r	.	.	4r	.	.	.	8e/	8cc\	8cc\	8.ee\L	8c/	8.g\L
8r	.	.	.	.	.	.	.	.	.	.	.	.	.	.	8r	8r	8r	.	8r	.
.	.	16D/Jk	.	.	16F\Jk	.	.	.	.	.	.	.	.	.	.	.	.	16dd\K	.	16f\K
8r	.	8C/	-bis	.	8E\	-bis	.	8r	.	.	8r	.	.	.	8r	8r	8r	8cc\J	8r	8e\J
=63	=63	=63	=63	=63	=63	=63	=63	=63	=63	=63	=63	=63	=63	=63	=63	=63	=63	=63	=63	=63
!LO:LB:g=original	!	!	!	!	!LO:LB:g=original	!	!	!	!	!	!	!	!	!	!	!	!	!	!	!
8GG/	.	4GG/	do-	.	4G\	do-	.	4B\	do-	.	4d\	do-	.	2.ryy	8g/	8dd\	8b\	8dd\	8g\	8g\
8r	.	.	.	.	.	.	.	.	.	.	.	.	.	.	8r	8r	8r	8r	8r	8r
8r	.	8GG/	-na	.	8G\	-na	.	8B\	-na	.	8d\	-na	.	.	8r	8r	8r	8r	8r	8r
8G\	.	4G\	no-	.	4G\	no-	.	8.B\L	no-	.	8.d\L	no-	.	.	8g/	8dd\	8b\	8dd\	8g\	8g\
8r	.	.	.	.	.	.	.	.	.	.	.	.	.	.	8r	8r	8r	8r	8r	8r
.	.	.	.	.	.	.	.	16A#X\KJ	.	.	16c#X\K	.	.	.	.	.	.	.	.	.
8r	.	8G\	-bis	.	8G\	-bis	.	8B\	-bis	.	8d\J	-bis	.	.	8r	8r	8r	8r	8r	8r
=64	=64	=64	=64	=64	=64	=64	=64	=64	=64	=64	=64	=64	=64	=64	=64	=64	=64	=64	=64	=64
!	!	!	!	!	!	!	!	!LO:LB:g=original	!	!	!LO:LB:g=original	!	!	!	!	!	!	!	!	!
4.C/	.	4.C/	pa-	.	4.G\	pa-	.	4.c\	pa-	.	4.e\	pa-	.	2.ryy	4.e/	4.cc\	4.cc\	4.ee\	4.c/	4.g\
*	*	*	*	*	*	*	*	*	*	*	*	*	*	*	*	*	*tremolo	*	*tremolo	*
!	!	!	!	!	!	!	!	!	!	!	!	!	!	!	!	!	!	!	!	!LO:TX:a:t=problem:mixed beam
4C/	.	4C/	-cem	.	4E\	-cem	.	4G\	-cem	.	4c\	-cem	.	.	4e/	4cc\	8cc\L	8ee\L	8c/L	8g\L
.	.	.	.	.	.	.	.	.	.	.	.	.	.	.	.	.	8cc\	8cc\	8c/	8c/
8r	.	8r	.	.	8r	.	.	8r	.	.	8r	.	.	.	8r	8r	8cc\J	8cc\J	8c/J	8c/J
*	*	*	*	*	*	*	*	*	*	*	*	*	*	*	*	*	*Xtremolo	*	*Xtremolo	*
=65	=65	=65	=65	=65	=65	=65	=65	=65	=65	=65	=65	=65	=65	=65	=65	=65	=65	=65	=65	=65
!	!	!	!	!	!	!	!	!	!	!	!	!	!	!	!LO:TX:a:t=3.	!LO:TX:a:t=3.	!	!LO:LB:g=original	!	!LO:LB:g=original
!	!	!	!	!	!	!	!	!	!	!	!	!	!	!	!LO:N:vis=0	!LO:N:vis=0	!	!	!	!
2.C/	.	2.C/	do-	.	(4.C\	do-	.	(4.A\	do-	.	(4.f\	do-	.	2.ryy	1.r	1.r	4.cc\	4.cc\	2.f\	4.a\
.	.	.	.	.	4.F\)	.	.	4.B\)	.	.	4.d\)	.	.	.	.	.	4.b\	4.dd\	.	4.f\
=66	=66	=66	=66	=66	=66	=66	=66	=66	=66	=66	=66	=66	=66	=66	=66	=66	=66	=66	=66	=66
!	!	!	!	!	!	!	!	!	!	!	!	!	!	!	!	!	!	!	!LO:LB:g=original	!
8C/	.	8.C/L	.	.	8.E\L	.	.	4c\	-na	.	4c\	-na	.	2.ryy	.	.	8cc\	8.cc\L	8c/	8.e\L
8r	.	.	.	.	.	.	.	.	.	.	.	.	.	.	.	.	8r	.	8r	.
.	.	16D/Jk	.	.	16F\Jk	.	.	.	.	.	.	.	.	.	.	.	.	16dd\K	.	16f\K
8r	.	8E/	-na	.	8G\	-na	.	8r	.	.	8r	.	.	.	.	.	8r	8ee\J	8r	8g\J
8C/	.	8.E/L	no-	.	8.G\L	no-	.	4r	.	.	4r	.	.	.	.	.	8cc\	8.ee\L	8c/	8.g\L
8r	.	.	.	.	.	.	.	.	.	.	.	.	.	.	.	.	8r	.	8r	.
.	.	16D/Jk	.	.	16F\Jk	.	.	.	.	.	.	.	.	.	.	.	.	16dd\K	.	16f\K
8r	.	8C/	-bis	.	8E\	-bis	.	8r	.	.	8r	.	.	.	.	.	8r	8cc\J	8r	8e\J
=67	=67	=67	=67	=67	=67	=67	=67	=67	=67	=67	=67	=67	=67	=67	=67	=67	=67	=67	=67	=67
!	!	!LO:LB:g=original	!	!	!	!	!	!LO:TX:a:t=problem:niejednoznaczny zapis łuku	!	!	!	!	!	!	!	!	!	!	!	!
2.C/	.	2.C/	do-	.	(4.C/	do-	.	(4.A\	no-	.	(4.f\	no-	.	2.ryy	2.r	2.r	4.cc\	4.cc\	2.f\	4.a\
.	.	.	.	.	4.F\)	.	.	4.B\	.	.	4.d\	.	.	.	.	.	4.b\	4.dd\	.	4.f\
=68	=68	=68	=68	=68	=68	=68	=68	=68	=68	=68	=68	=68	=68	=68	=68	=68	=68	=68	=68	=68
!	!	!	!	!	!	!	!	!	!	!	!	!	!	!	!	!LO:LB:g=original	!LO:LB:g=original	!	!	!
8C/	.	8.C/L	.	.	8.E\L	.	.	4c\)	-bis	.	4c\)	-bis	.	2.ryy	8e/	8cc\	8cc\	8.cc\L	8c/	8.e\L
8r	.	.	.	.	.	.	.	.	.	.	.	.	.	.	8r	8r	8r	.	8r	.
.	.	16D/Jk	.	.	16F\Jk	.	.	.	.	.	.	.	.	.	.	.	.	16dd\K	.	16f\K
8r	.	8E/	-na	.	8G\	-na	.	8r	.	.	8r	.	.	.	8r	8r	8r	8ee\J	8r	8g\J
8C/	.	8.E/L	no-	.	8.G\L	no-	.	4r	.	.	4r	.	.	.	8e/	8cc\	8cc\	8.ee\L	8c/	8.g\L
8r	.	.	.	.	.	.	.	.	.	.	.	.	.	.	8r	8r	8r	.	8r	.
.	.	16D/Jk	.	.	16F\Jk	.	.	.	.	.	.	.	.	.	.	.	.	16dd\K	.	16f\K
8r	.	8C/	-bis	.	8E\	-bis	.	8r	.	.	8r	.	.	.	8r	8r	8r	8cc\J	8r	8e\J
=69	=69	=69	=69	=69	=69	=69	=69	=69	=69	=69	=69	=69	=69	=69	=69	=69	=69	=69	=69	=69
!	!	!	!	!	!LO:LB:g=original	!	!	!	!	!	!	!	!	!	!	!	!	!	!	!
8GG/	.	4GG/	do-	.	4G\	do-	.	4B\	do-	.	4d\	do-	.	2.ryy	8g/	8dd\	8b\	8dd\	8g\	8g\
8r	.	.	.	.	.	.	.	.	.	.	.	.	.	.	8r	8r	8r	8r	8r	8r
8r	.	8GG/	-na	.	8G\	-na	.	8B\	-na	.	8d\	-na	.	.	8r	8r	8r	8r	8r	8r
8G\	.	4G\	no-	.	4G\	no-	.	8.B\L	no-	.	8.d\L	no-	.	.	8g/	8dd\	8b\	8dd\	8g\	8g\
8r	.	.	.	.	.	.	.	.	.	.	.	.	.	.	8r	8r	8r	8r	8r	8r
.	.	.	.	.	.	.	.	16A#X\KJ	.	.	16c#X\Jk	.	.	.	.	.	.	.	.	.
8r	.	8G\	-bis	.	8G\	-bis	.	8B\	-bis	.	8d\	-bis	.	.	8r	8r	8r	8r	8r	8r
=70	=70	=70	=70	=70	=70	=70	=70	=70	=70	=70	=70	=70	=70	=70	=70	=70	=70	=70	=70	=70
*	*	*	*	*	*	*	*	*	*	*	*	*	*	*	*	*	*	*	*	*rep
!LO:LB:g=original	!	!	!	!	!	!	!	!LO:LB:g=original	!	!	!LO:LB:g=original	!	!	!	!	!	!	!	!	!
8C/	.	4C/	pa-	.	4G\	{do-	.	8.c\L	pa-	.	8.e\L	pa-	.	2.ryy	8e/	8cc\	8cc\	8ee\	8c/	8g\
8r	.	.	.	.	.	.	.	.	.	.	.	.	.	.	8r	8r	8r	8r	8r	8r
.	.	.	.	.	.	.	.	16d\Jk	.	.	16f\Jk	.	.	.	.	.	.	.	.	.
8r	.	8E/	-cem	.	8G\	-na	.	8c\	-cem	.	8e\	-cem	.	.	8r	8r	8r	8r	8r	8r
8G\	.	4G\	no-	.	4G\	no-	.	8.B\L	do-	.	8.d\L	do-	.	.	4r	4r	8b\	8dd\	8g\	8g\
8r	.	.	.	.	.	.	.	.	.	.	.	.	.	.	.	.	8r	8r	8r	8r
.	.	.	.	.	.	.	.	16A#X\Jk	.	.	16c#X\Jk	.	.	.	.	.	.	.	.	.
8r	.	8G\	-bis	.	8G\	-bis}	.	8B\	-na	.	8d\	-na	.	.	8r	8r	8r	8r	8r	8r
*	*	*	*	*	*	*	*	*	*	*	*	*	*	*	*	*	*	*	*	*Xrep
=71	=71	=71	=71	=71	=71	=71	=71	=71	=71	=71	=71	=71	=71	=71	=71	=71	=71	=71	=71	=71
*	*	*	*	*	*	*	*	*	*	*	*	*	*	*	*	*	*	*rep	*rep	*rep
!	!	!	!	!	!	!	!	!	!	!	!	!	!	!	!LO:LB:g=original	!	!	!	!	!
8C/	.	4C/	pa-	.	4G\	{do-	.	8.c\L	no-	.	8.e\L	no-	.	2.ryy	8e/	8cc\	8cc\	8ee\	8c/	8g\
8r	.	.	.	.	.	.	.	.	.	.	.	.	.	.	8r	8r	8r	8r	8r	8r
.	.	.	.	.	.	.	.	16d\K	.	.	16f\K	.	.	.	.	.	.	.	.	.
8r	.	8E/	-cem	.	8G\	-na	.	8c\J	.	.	8e\J	.	.	.	8r	8r	8r	8r	8r	8r
8G\	.	4G\	no-	.	4G\	no-	.	8.B\L	.	.	8.d\L	.	.	.	8g/	8dd\	8b\	8dd\	8g\	8g\
8r	.	.	.	.	.	.	.	.	.	.	.	.	.	.	8r	8r	8r	8r	8r	8r
.	.	.	.	.	.	.	.	16A#X\Jk	.	.	16c#X\Jk	.	.	.	.	.	.	.	.	.
8r	.	8G\	-bis	.	8G\	-bis}	.	8B\	-bis	.	8d\	-bis	.	.	8r	8r	8r	8r	8r	8r
*	*	*	*	*	*	*	*	*	*	*	*	*	*	*	*	*	*	*Xrep	*Xrep	*Xrep
=72	=72	=72	=72	=72	=72	=72	=72	=72	=72	=72	=72	=72	=72	=72	=72	=72	=72	=72	=72	=72
!	!	!LO:LB:g=original	!	!	!	!	!	!	!	!	!	!	!	!	!	!	!	!LO:LB:g=original	!	!LO:LB:g=original
4.C/	.	4.C/	pa-	.	4.G\	pa-	.	4.c\	pa-	.	4.e\	pa-	.	2.ryy	4.e/	4.cc\	4.cc\	4.ee\	4.c/	[4.g\
4C/	.	4C/	-cem	.	4E\	-cem	.	4G\	-cem	.	4c\	-cem	.	.	4e/	4cc\	4cc\	4ee\	4c/	4g\]
8r	.	8r	.	.	8r	.	.	8r	.	.	8r	.	.	.	8r	8r	8r	8r	8r	8r
=73	=73	=73	=73	=73	=73	=73	=73	=73	=73	=73	=73	=73	=73	=73	=73	=73	=73	=73	=73	=73
!LO:TX:a:t=2.	!	!	!	!	!	!	!LO:DY:a	!	!	!LO:DY:a	!	!	!LO:DY:a	!	!LO:TX:a:t=2.	!LO:TX:a:t=2.	!LO:TX:a:t=2.	!LO:TX:a:t=2.	!LO:TX:a:t=2.	!LO:TX:a:t=2.
!LO:N:vis=0	!	!	!	!LO:DY:b	!	!	!	!	!	!	!	!	!	!	!LO:N:vis=0	!LO:N:vis=0	!LO:N:vis=0	!LO:N:vis=0	!LO:N:vis=0	!LO:N:vis=0
1.r	.	2.C/	pa-	p	2.G\	pa-	p	2.c\	pa-	p	(2.e\	pa-	p	2.ryy	1.r	1.r	1.r	1.r	1.r	1.r
=74	=74	=74	=74	=74	=74	=74	=74	=74	=74	=74	=74	=74	=74	=74	=74	=74	=74	=74	=74	=74
.	.	4.C/	.	.	4.E\	.	.	4.G/	.	.	4.c\)	.	.	2.ryy	.	.	.	.	.	.
.	.	4C/	-cem	.	4E\	-cem	.	4G/	-cem	.	4c\	-cem	.	.	.	.	.	.	.	.
.	.	8r	.	.	8r	.	.	8r	.	.	8r	.	.	.	.	.	.	.	.	.
=75	=75	=75	=75	=75	=75	=75	=75	=75	=75	=75	=75	=75	=75	=75	=75	=75	=75	=75	=75	=75
!	!	!	!	!LO:DY:b	!LO:LB:g=original	!	!LO:DY:a	!	!	!LO:DY:a	!	!	!LO:DY:a	!	!	!	!	!	!LO:LB:g=original	!
4r	.	4.AA/	do-	f	4.F#X\	do-	f	4.c\	do-	ff	4.d#X\	do-	ff	2.ryy	2.c/	2.cc\	4r	4r	4r	4r
8r	.	.	.	.	.	.	.	.	.	.	.	.	.	.	.	.	8r	8r	8r	8r
!	!LO:DY:b	!	!	!	!	!	!	!	!	!	!	!	!	!	!	!	!	!	!	!
4.AA/	ff	4AA/	-na	.	4F#\	-na	.	4c\	-na	.	4d#\	-na	.	.	.	.	[4.cc\	(4.ee-X\	[4.c/	(4.f#X\
.	.	8r	.	.	8r	.	.	8r	.	.	8r	.	.	.	.	.	.	.	.	.
=76	=76	=76	=76	=76	=76	=76	=76	=76	=76	=76	=76	=76	=76	=76	=76	=76	=76	=76	=76	=76
!	!	!	!	!	!	!	!LO:DY:a	!LO:LB:g=original	!	!LO:DY:a	!LO:LB:g=original	!	!LO:DY:a	!	!	!	!LO:LB:g=original	!	!	!
8GG/	.	4.GG/	no-	p	4.G\	no-	p	4.B\	no-	p	4.e\	no-	p	2.ryy	4r	4r	8cc\]	8een\)	8c/]	8g\)
8r	.	.	.	.	.	.	.	.	.	.	.	.	.	.	.	.	8r	8r	4r	8r
8r	.	.	.	.	.	.	.	.	.	.	.	.	.	.	8r	8r	4r	4r	.	8r
4r	.	4GG/	-bis	.	4G\	-bis	.	4B\	-bis	.	4dn\	-bis	.	.	8r	8r	.	.	8r	8r
.	.	.	.	.	.	.	.	.	.	.	.	.	.	.	8g/L	8dd\L	8b\L	8dd\L	8g\L	8g\L
8r	.	8r	.	.	8r	.	.	8r	.	.	8r	.	.	.	8g/J	8dd\J	8b\J	8dd\J	8g\J	8g\J
=77	=77	=77	=77	=77	=77	=77	=77	=77	=77	=77	=77	=77	=77	=77	=77	=77	=77	=77	=77	=77
!	!	!	!	!	!	!	!LO:DY:a	!	!	!LO:DY:b	!	!	!LO:DY:a	!	!	!LO:LB:g=original	!	!	!	!
4r	.	4.AA/	do-	f	4.D#X\	do-	f	4.F#X/	do-	f	4.c\	do-	f	2.ryy	2.c/	2.cc\	4r	4r	4r	4r
8r	.	.	.	.	.	.	.	.	.	.	.	.	.	.	.	.	8r	8r	8r	8r
4.AA/	.	4AA/	-na	.	4D#\	-na	.	4F#/	-na	.	4c\	-na	.	.	.	.	[4.cc\	(4.ee-X\	4.c^>/	4.f#X\
.	.	8r	.	.	8r	.	.	8r	.	.	8r	.	.	.	.	.	.	.	.	.
=78	=78	=78	=78	=78	=78	=78	=78	=78	=78	=78	=78	=78	=78	=78	=78	=78	=78	=78	=78	=78
!LO:LB:g=original	!	!	!	!	!	!	!	!	!	!	!	!	!	!	!	!	!	!	!	!
8GG/	.	4.GG/	no-	.	4.E\	no-	.	4.G/	no-	.	4.c\	no-	.	2.ryy	4r	4r	8cc\]	8een\)	8c/	8g\
8r	.	.	.	.	.	.	.	.	.	.	.	.	.	.	.	.	8r	8r	8r	8r
8r	.	.	.	.	.	.	.	.	.	.	.	.	.	.	8r	8r	4r	4r	8r	4r
4r	.	4GG/	-bis	.	4Dn\	-bis	.	4G/	-bis	.	4B\	-bis	.	.	8r	8r	.	.	8r	.
.	.	.	.	.	.	.	.	.	.	.	.	.	.	.	8g/L	8dd\L	8b\L	8dd\L	8g\L	8g\L
8r	.	8r	.	.	8r	.	.	8r	.	.	8r	.	.	.	8g/J	8dd\J	8b\J	8dd\J	8g\J	8g\J
=79	=79	=79	=79	=79	=79	=79	=79	=79	=79	=79	=79	=79	=79	=79	=79	=79	=79	=79	=79	=79
!	!	!LO:LB:g=original	!	!	!	!	!LO:DY:a	!	!	!LO:DY:b	!	!	!LO:DY:b	!	!	!	!	!	!	!
4C/	.	4C/	do-	.	4C/	do-	f	4c\	do-	f	4c\	do-	f	2.ryy	4e/	4cc\	4cc\	4cc\	4c/	4g\
8D/	.	8D/	-na	.	8D/	-na	.	8d\	-na	.	8d\	-na	.	.	8r	8r	8r	8r	8r	8r
4E/	.	4E/	no-	.	4E\	no-	.	4e\	no-	.	4e\	no-	.	.	4r	4r	4r	4r	4r	4r
8C/	.	8C/	-bis	.	8C\	-bis	.	8c\	-bis	.	8c\	-bis	.	.	8r	8r	8r	8r	8r	8r
=80	=80	=80	=80	=80	=80	=80	=80	=80	=80	=80	=80	=80	=80	=80	=80	=80	=80	=80	=80	=80
*2\right	*	*	*	*	*	*	*	*	*	*	*	*	*	*	*	*	*	*	*	*
!	!	!	!	!	!	!	!	!	!	!	!	!	!	!	!	!	!	!LO:LB:g=original	!	!
2.G\	.	2.G\	pa-	.	2.G\	pa-	.	2.B\	pa-	.	2.d\	pa-	.	2.ryy	8r	8r	8r	8r	8r	8r
.	.	.	.	.	.	.	.	.	.	.	.	.	.	.	8g/L	8dd\L	8b\L	8dd\L	8g\L	8g\L
.	.	.	.	.	.	.	.	.	.	.	.	.	.	.	8g/J	8dd\J	8b\J	8dd\J	8g\J	8g\J
*	*	*	*	*	*	*	*	*	*	*	*	*	*	*	*tremolo	*tremolo	*tremolo	*tremolo	*tremolo	*rep
.	.	.	.	.	.	.	.	.	.	.	.	.	.	.	8g/L	8dd\L	8b\L	8dd\L	8g\L	8g\L
.	.	.	.	.	.	.	.	.	.	.	.	.	.	.	8g/	8dd\	8b\	8dd\	8g\	8g\
.	.	.	.	.	.	.	.	.	.	.	.	.	.	.	8g/J	8dd\J	8b\J	8dd\J	8g\J	8g\J
*	*	*	*	*	*	*	*	*	*	*	*	*	*	*	*Xtremolo	*Xtremolo	*Xtremolo	*Xtremolo	*Xtremolo	*Xrep
=81	=81	=81	=81	=81	=81	=81	=81	=81	=81	=81	=81	=81	=81	=81	=81	=81	=81	=81	=81	=81
!	!	!	!	!	!LO:LB:g=original	!	!	!	!	!	!	!	!	!	!LO:LB:g=original	!	!	!	!	!LO:LB:g=original
4C/	.	4C/	-cem	.	4E\	-cem	.	4B\	-cem	.	4c\	-cem	.	2.ryy	4e/	4cc\	4cc\	4cc\	4e\	4g\
8r	.	8r	.	.	8E\	da	.	8c\	do-	.	8c\	da	.	.	8r	8r	8cc\	8r	8c\	8e\
4r	.	4r	.	.	4F\	no-	.	(4B\	-na	.	4d\	no-	.	.	4r	4r	4b\	4r	4d\	4f\
8r	.	8r	.	.	8G\	-bis	.	8B-X\)	.	.	8e\	-bis	.	.	8r	8r	8b-X\	8r	8e\	8g\
=82	=82	=82	=82	=82	=82	=82	=82	=82	=82	=82	=82	=82	=82	=82	=82	=82	=82	=82	=82	=82
*	*	*	*	*	*	*	*	*^	*	*	*	*	*	*	*	*	*	*	*	*
!	!	!	!	!	!	!	!	!	!	!	!	!LO:LB:g=original	!	!	!	!	!	!	!	!LO:LB:g=original	!
2.F\	.	2.F\	pa-	.	4.F\	pa-	.	4.A/	2.A\	no-	.	[2.f\	pa-	.	2.ryy	8r	8r	4a\	8r	2.f\	2.a\
.	.	.	.	.	.	.	.	.	.	.	.	.	.	.	.	8c/L	8cc\L	.	8cc\L	.	.
.	.	.	.	.	.	.	.	.	.	.	.	.	.	.	.	8c/J	8cc\J	8r	8cc\J	.	.
*	*	*	*	*	*	*	*	*	*	*	*	*	*	*	*	*tremolo	*tremolo	*	*tremolo	*	*
.	.	.	.	.	4.A\	.	.	4.c/	.	-bis	.	.	.	.	.	8c/L	8cc\L	4r	8cc\L	.	.
.	.	.	.	.	.	.	.	.	.	.	.	.	.	.	.	8c/	8cc\	.	8cc\	.	.
.	.	.	.	.	.	.	.	.	.	.	.	.	.	.	.	8c/J	8cc\J	8r	8cc\J	.	.
*	*	*	*	*	*	*	*	*	*	*	*	*	*	*	*	*Xtremolo	*Xtremolo	*	*Xtremolo	*	*
=83	=83	=83	=83	=83	=83	=83	=83	=83	=83	=83	=83	=83	=83	=83	=83	=83	=83	=83	=83	=83	=83
!	!	!	!	!	!	!	!	!LO:LB:g=original	!	!	!	!	!	!	!	!	!	!	!	!	!
!	!	!	!	!	!	!	!	!LO:N:vis=2	!	!	!	!	!	!	!	!LO:LB:g=original	!	!LO:LB:g=original	!	!	!
4.F\	.	[4.F\	.	.	[4.A\	.	.	2.c/	4.A\	pa-	.	4.f\]	.	.	2.ryy	[>2.c/	[2.cc\	[>2.c/	[2.cc\	(4.f\	4.a\
4F\	.	4F\]	.	.	4A\]	.	.	.	4.c\	.	.	4f\	.	.	.	.	.	.	.	4f\	4a\
8C\	.	8C\	.	.	8G\	.	.	.	.	.	.	8e\	.	.	.	.	.	.	.	8e\)	8g\
*	*	*	*	*	*	*	*	*v	*v	*	*	*	*	*	*	*	*	*	*	*	*
=84	=84	=84	=84	=84	=84	=84	=84	=84	=84	=84	=84	=84	=84	=84	=84	=84	=84	=84	=84	=84
2C/	.	2C/	-cem.	.	2G\	-cem.	.	2c\	-cem.	.	2e\	-cem.	.	2.ryy	2c/]	2cc\]	2c/]	2cc\]	2e\	2g\
!	!	!	!	!	!	!	!	!	!	!	!	!	!	!	!LO:TX:a:t=problem:brak pauz ósemkowych	!LO:TX:a:t=problem:brak pauz ósemkowych	!	!	!	!
8r	.	8r	.	.	8r	.	.	8r	.	.	8r	.	.	.	8ryy	8ryy	8r	8r	4r	8r
!	!	!	!	!	!LO:N:vis=4	!	!	!LO:TX:a:i:t=fine	!	!	!LO:TX:a:i:t=fine	!	!	!	!	!	!	!	!	!
8r	.	8r	.	.	8r	.	.	8r	.	.	8r	.	.	.	8ryy	8ryy	8r	8r	.	8r
==	==	==	==	==	==	==	==	==	==	==	==	==	==	==	==	==	==	==	==	==
*-	*-	*-	*-	*-	*-	*-	*-	*-	*-	*-	*-	*-	*-	*-	*-	*-	*-	*-	*-	*-
!!!system-decoration: [(g1)]g2[(g3)]g4
!!!RDF**kern: <= below
!!!RDF**kern: >= above
!!!ENC: Anna Matuszewska
!!!END: 2020-06-17
